images/instagram 1.svg

<svg width="18" height="18" viewBox="0 0 18 18" fill="none" xmlns="http://www.w3.org/2000/svg">
<path d="M6 2.25C5.00544 2.25 4.05161 2.64509 3.34835 3.34835C2.64509 4.05161 2.25 5.00544 2.25 6V12C2.25 12.9946 2.64509 13.9484 3.34835 14.6517C4.05161 15.3549 5.00544 15.75 6 15.75H12C12.9946 15.75 13.9484 15.3549 14.6517 14.6517C15.3549 13.9484 15.75 12.9946 15.75 12V6C15.75 5.00544 15.3549 4.05161 14.6517 3.34835C13.9484 2.64509 12.9946 2.25 12 2.25H6ZM13.5 3.75C13.9125 3.75 14.25 4.0875 14.25 4.5C14.25 4.9125 13.9125 5.25 13.5 5.25C13.0875 5.25 12.75 4.9125 12.75 4.5C12.75 4.0875 13.0875 3.75 13.5 3.75ZM9 5.25C9.99456 5.25 10.9484 5.64509 11.6517 6.34835C12.3549 7.05161 12.75 8.00544 12.75 9C12.75 9.99456 12.3549 10.9484 11.6517 11.6517C10.9484 12.3549 9.99456 12.75 9 12.75C8.00544 12.75 7.05161 12.3549 6.34835 11.6517C5.64509 10.9484 5.25 9.99456 5.25 9C5.25 8.00544 5.64509 7.05161 6.34835 6.34835C7.05161 5.64509 8.00544 5.25 9 5.25ZM9 6.75C8.70443 6.7501 8.41177 6.80841 8.13873 6.92161C7.8657 7.03482 7.61763 7.20069 7.4087 7.40976C7.19977 7.61883 7.03406 7.86701 6.92104 8.14012C6.80802 8.41323 6.7499 8.70593 6.75 9.0015C6.7501 9.29707 6.80841 9.58973 6.92161 9.86277C7.03482 10.1358 7.20069 10.3839 7.40976 10.5928C7.61883 10.8017 7.86701 10.9674 8.14012 11.0805C8.41323 11.1935 8.70593 11.2516 9.0015 11.2515C9.59844 11.2513 10.1708 11.014 10.5928 10.5917C11.0148 10.1695 11.2517 9.59694 11.2515 9C11.2513 8.40306 11.014 7.83066 10.5917 7.4087C10.1695 6.98674 9.59694 6.7498 9 6.75Z" fill="white"/>
</svg>

<svg width="18" height="18" fill="none" xmlns="http://www.w3.org/2000/svg"><path d="M6 2.25A3.75 3.75 0 0 0 2.25 6v6A3.75 3.75 0 0 0 6 15.75h6A3.75 3.75 0 0 0 15.75 12V6A3.75 3.75 0 0 0 12 2.25H6zm7.5 1.5c.412 0 .75.338.75.75s-.338.75-.75.75a.752.752 0 0 1-.75-.75c0-.412.338-.75.75-.75zM9 5.25a3.75 3.75 0 1 1 0 7.5 3.75 3.75 0 0 1 0-7.5zm0 1.5a2.25 2.25 0 1 0 .002 4.502A2.25 2.25 0 0 0 9 6.75z" fill="#fff"/></svg>
